!!!OTL: 1811. Wiegenlied eines ungeduldigen Kindermaedchens.
!!!ARE: Europa, Mitteleuropa, Deutschland, Hessen, Odenwald
!!!SCT: E1811
!!!TXL: @@DE
!!!YEM: Copyright 1995, estate of Helmut Schaffrath.
**kern	**text
*ICvox	*
*M2/4	*
*k[f#]	*
*G:	*
=1	=1
!LO:TX:a:t=Aus dem Odenwald. Erk II, 4/5, Nr. 106.	!
{4b/	Hai-
8a	-jo,
8b/	bo-
=2	=2
4g	-ba-
8d}	-jo!
{8d	Jm
=3	=3
8b	Som-
8b	-mer
8a	fängt
8b/	der
=4	=4
4g	Mai
8d	an.
8r}	.
=5	=5
{8b	Wenn
8b	die
8cc	Mäd-
8cc	-chen
=6	=6
8aL	krau-
8ccJ	-ten
4b}	gehn,
=7	=7
{8g	muß
8g	ich
8a	vor
8a	der
=8	=8
8f#	Wie-
8f#	-ge
8g	ſtehn,
8r}	.
=9	=9
{8b	macht
8b	die
8cc	Wie-
8cc	-ge
=10	=10
8aL	knick,
8ccJ	.
4b}	knack,
=11	=11
{8g	ſchläft
8g	mein
8a	lie-
8a	-ber
=12	=12
8f#	Dick-
8f#	.
8g	-ſack.
8r}	.
==	==
!!!AGN: Kinder -, Wiegen -, Schlaf - Lied
!!!ONB: ESAC (Essen Associative Code) Database: ERK3
!!!AMT: simple duple
!!!AIN: vox
!!!EED: Helmut Schaffrath
!!!EEV: 1.0
!!!GTL: Einige Kinderlieder. a) Wiegenlieder.
!!!URL-scan:https://rosdok.uni-rostock.de/mcrviewer/recordIdentifier/rosdok_ppn745177999/iview2/phys_0585.iview2?x=-4.404412318551749&y=635.4435907183215&scale=0.6456904138606623&rotation=0&layout=singlePageLayout
!!!ENC: Anna Maria Matuszewska
!!!EEV: 2025/08/01
*-	*-
